X:6504
T:The Banks of the Dee
O:england
M:6/8
C:
S:Bacon (Williams MSS)
N:
A:Ascott-under-Wychwood
R:Jig
%:
%:
%P:A/2(AB)$^5$
P:A.(AB)5
K:G
I:speed 300
P:A
|:\
G      | DEF GAB  | ced cBA | BGE Ddc | BcA G2  :|\
P:B
|:\
G/2A/2 | Bcd c2 g | ede dBG | Bcd efg | GAG FED |\
cec BdB  | GFG AFD | GFE Ddc | BcA G2  :|


